app/dist/common/images/pantaflix-ag.svg

<svg height="18" viewBox="0 0 18 18" width="18" xmlns="http://www.w3.org/2000/svg"><path d="m0 0h18v18h-18z" fill="#181b1e"/><path d="m4 12v-6h2.62c1.23 0 2.38.7 2.38 2.03 0 1.37-1.18 1.97-2.42 1.97h-1.67v-1h1.45c.62 0 1.2-.28 1.2-.97s-.59-1.03-1.21-1.03h-.85v5zm6 0v-6h4v.64h-3.25v2.36h2.95v.64h-2.95v2.36z" fill="#fff"/></svg>

<!-- by TradingView --><svg width="18" height="18" viewBox="0 0 18 18" xmlns="http://www.w3.org/2000/svg"><path fill="#181B1E" d="M0 0h18v18H0z"/><path d="M4 12V6h2.62C7.85 6 9 6.7 9 8.03 9 9.4 7.82 10 6.58 10H4.91V9h1.45c.62 0 1.2-.28 1.2-.97S6.97 7 6.35 7H5.5v5H4ZM10 12V6h4v.64h-3.25V9h2.95v.64h-2.95V12H10Z" fill="#fff"/></svg>
